public/avatar/item0/52.svg

<svg xmlns:xlink="http://www.w3.org/1999/xlink" height="58.65" width="49.15" xmlns="http://www.w3.org/2000/svg"><use height="18.8" transform="translate(9.2 12.7)" width="30.3" xlink:href="#a"/><defs><g id="a"><path d="M28.55 17.05q.15-1.95-.05-3.95l.7-1.35q.35-1.2-.6-2.85-.8-2-2.85-4.8-.9-1.2-4.3-2.15Q18.1 1 14.85 1l-.05.1-.05-.1q-3.25 0-6.5.95-3.25.9-4.2 2.15-2.35 3.25-2.7 5.5-.55 1.2-.25 2.15l.2.5-.3 5.3" fill="none" stroke="#630040" stroke-linecap="round" stroke-linejoin="round" stroke-width="2"/><path d="M.1.25q7.1 0 11.75 7.35Q7.1 4.75-.05 4.75q-7.1 0-12.1 4.1 1.3-2.15 3.45-4.3Q-4.35.25.1.25" fill-rule="evenodd" transform="translate(14.9 5.4)"/><path d="m9.6 7.8 1.95-.7 1.9-.05.35 3.75q.2 2.85-.35 1.75L9.6 7.8m-19.3 0-3.85 4.75q-.55 1.1-.35-1.75l.35-3.75 1.95.05 1.9.7" fill="#ff54c3" fill-rule="evenodd" transform="translate(14.9 5.4)"/><path d="M13.6 3.4q1.15 1.55.7 2.95-.4 1.35-1.25 1.8l-2.45-.7Q4.55 5.5.05 5.5q-4.85 0-1.1-3.9l7.2-.55L13.6 3.4" fill="#b80077" fill-rule="evenodd" transform="translate(14.9 5.4)"/><path d="M1.55 1.6Q5.3 5.5.45 5.5q-4.65 0-10.5 1.95l-2.5.7q-.85-.45-1.25-1.8-.25-.85.2-2l.5-.95 7.45-2.35 7.2.55" fill="#b80077" fill-rule="evenodd" transform="translate(14.9 5.4)"/><path d="M-10.85-1.3q.95-1.25 4.2-2.15 3.25-.95 6.5-.95 4.2 7 1.05 7-1.9 0-6.75 1.25L-12.4 5.5q-1.85.35-.75-2.55.85-2.25 2.3-4.25" fill="#ff00a6" fill-rule="evenodd" transform="translate(14.9 5.4)"/><path d="M10.85-1.3q5.5 7.45 2.05 6.8Q2.8 2.6-.4 2.6q-3.15 0 .35-7 3.25 0 6.6.95 3.4.95 4.3 2.15" fill="#ff00a6" fill-rule="evenodd" transform="translate(14.9 5.4)"/><path d="M-6.4 1.85q-4.25 1.45-4.65 1.3-.6-.25 0-1.65.6-1.3 1.5-2.2Q-7.05-3.2.1-3.2 3.45.15.1.25q-1.8.05-6.5 1.6" fill="#fff" fill-rule="evenodd" transform="translate(14.9 5.4)"/><path d="M9.9-.7q.9.9 1.5 2.2.6 1.4 0 1.65-.4.15-4.65-1.3Q2.05.3.25.25-3.1.15.25-3.2 7.4-3.2 9.9-.7" fill="#fff" fill-rule="evenodd" transform="translate(14.9 5.4)"/><path d="M9.65-.05q1 .7 1.95 3.2L9.7 3Q8.65 1 7.85.65 4.9-.7-.75-.7-6.1-.7-7.9.95-9.1 2-8.95 2.8l-2.4.9.45-1.4 2-3q.95-1.6 8.65-1.9 2.55-.15 5.9.85 2.85.85 4 1.7" fill-rule="evenodd" transform="translate(14.9 5.4)"/><path d="m-.05-1.7-7.6 1.25q-1.15.2-2.85 3.75l-.85.4q-.45-.55.35-2.2.85-1.7 2.2-2.85Q-6.65-3.1.25-3.2q2.35 1.5-.3 1.5" fill="#b80077" fill-rule="evenodd" transform="translate(14.9 5.4)"/><path d="M9-1.35q2.55 2 2.75 3.9.05.35-.5.6-1.4-3.25-3.4-3.6L.25-1.7q-1.65 0-1.15-.75l.8-.75 3.75.3q4 .5 5.35 1.55" fill="#b80077" fill-rule="evenodd" transform="translate(14.9 5.4)"/><path d="m-13.85 12.9 3.6-5.25q.55-.5 3.35-1.2Q-3.3 5.5.45 5.5q5.8 0 9.8 1.95l3.4 5.2" fill="none" stroke="#630040" stroke-linecap="round" stroke-linejoin="round" transform="translate(14.9 5.4)"/><path d="M10.3.9q1.05 1.45.95 2-.25 1-4.1-.75L1.85.55Q.85.25.25-1l-.4-1.2 8.3 1.1q1.05.45 2.15 2" fill="#fff" fill-rule="evenodd" transform="translate(14.9 5.4)"/></g></defs></svg>

<?xml version="1.0" encoding="UTF-8" standalone="no"?>
<svg xmlns:xlink="http://www.w3.org/1999/xlink" height="58.65px" width="49.15px" xmlns="http://www.w3.org/2000/svg">
  <g transform="matrix(1.0, 0.0, 0.0, 1.0, 24.1, 18.1)">
    <use height="18.8" transform="matrix(1.0, 0.0, 0.0, 1.0, -14.9, -5.4)" width="30.3" xlink:href="#shape0"/>
  </g>
  <defs>
    <g id="shape0" transform="matrix(1.0, 0.0, 0.0, 1.0, 14.9, 5.4)">
      <path d="M13.65 11.65 Q13.8 9.7 13.6 7.7 L14.3 6.35 Q14.65 5.15 13.7 3.5 12.9 1.5 10.85 -1.3 9.95 -2.5 6.55 -3.45 3.2 -4.4 -0.05 -4.4 L-0.1 -4.3 -0.15 -4.4 Q-3.4 -4.4 -6.65 -3.45 -9.9 -2.55 -10.85 -1.3 -13.2 1.95 -13.55 4.2 -14.1 5.4 -13.8 6.35 L-13.6 6.85 -13.9 12.15" fill="none" stroke="#630040" stroke-linecap="round" stroke-linejoin="round" stroke-width="2.0"/>
      <path d="M0.1 0.25 Q7.2 0.25 11.85 7.6 7.1 4.75 -0.05 4.75 -7.15 4.75 -12.15 8.85 -10.85 6.7 -8.7 4.55 -4.35 0.25 0.1 0.25" fill="#000000" fill-rule="evenodd" stroke="none"/>
      <path d="M9.6 7.8 L11.55 7.1 13.45 7.05 13.8 10.8 Q14.0 13.65 13.45 12.55 L9.6 7.8" fill="#ff54c3" fill-rule="evenodd" stroke="none"/>
      <path d="M-9.7 7.8 L-13.55 12.55 Q-14.1 13.65 -13.9 10.8 L-13.55 7.05 -11.6 7.1 -9.7 7.8" fill="#ff54c3" fill-rule="evenodd" stroke="none"/>
      <path d="M13.6 3.4 Q14.75 4.95 14.3 6.35 13.9 7.7 13.05 8.15 L10.6 7.45 Q4.55 5.5 0.05 5.5 -4.8 5.5 -1.05 1.6 L6.15 1.05 13.6 3.4" fill="#b80077" fill-rule="evenodd" stroke="none"/>
      <path d="M1.55 1.6 Q5.3 5.5 0.45 5.5 -4.2 5.5 -10.05 7.45 L-12.55 8.15 Q-13.4 7.7 -13.8 6.35 -14.05 5.5 -13.6 4.35 L-13.1 3.4 -5.65 1.05 1.55 1.6" fill="#b80077" fill-rule="evenodd" stroke="none"/>
      <path d="M-10.85 -1.3 Q-9.9 -2.55 -6.65 -3.45 -3.4 -4.4 -0.15 -4.4 4.05 2.6 0.9 2.6 -1.0 2.6 -5.85 3.85 L-12.4 5.5 Q-14.25 5.85 -13.15 2.95 -12.3 0.7 -10.85 -1.3" fill="#ff00a6" fill-rule="evenodd" stroke="none"/>
      <path d="M10.85 -1.3 Q16.35 6.15 12.9 5.5 2.8 2.6 -0.4 2.6 -3.55 2.6 -0.05 -4.4 3.2 -4.4 6.55 -3.45 9.95 -2.5 10.85 -1.3" fill="#ff00a6" fill-rule="evenodd" stroke="none"/>
      <path d="M-6.4 1.85 Q-10.65 3.3 -11.05 3.15 -11.65 2.9 -11.05 1.5 -10.45 0.2 -9.55 -0.7 -7.05 -3.2 0.1 -3.2 3.45 0.15 0.1 0.25 -1.7 0.3 -6.4 1.85" fill="#ffffff" fill-rule="evenodd" stroke="none"/>
      <path d="M9.9 -0.7 Q10.8 0.2 11.4 1.5 12.0 2.9 11.4 3.15 11.0 3.3 6.75 1.85 2.05 0.3 0.25 0.25 -3.1 0.15 0.25 -3.2 7.4 -3.2 9.9 -0.7" fill="#ffffff" fill-rule="evenodd" stroke="none"/>
      <path d="M9.65 -0.05 Q10.65 0.65 11.6 3.15 L9.7 3.0 Q8.65 1.0 7.85 0.65 4.9 -0.7 -0.75 -0.7 -6.1 -0.7 -7.9 0.95 -9.1 2.0 -8.95 2.8 L-11.35 3.7 -10.9 2.3 -8.9 -0.7 Q-7.95 -2.3 -0.25 -2.6 2.3 -2.75 5.65 -1.75 8.5 -0.9 9.65 -0.05" fill="#000000" fill-rule="evenodd" stroke="none"/>
      <path d="M-0.05 -1.7 L-7.65 -0.45 Q-8.8 -0.25 -10.5 3.3 L-11.35 3.7 Q-11.8 3.15 -11.0 1.5 -10.15 -0.2 -8.8 -1.35 -6.65 -3.1 0.25 -3.2 2.6 -1.7 -0.05 -1.7" fill="#b80077" fill-rule="evenodd" stroke="none"/>
      <path d="M9.0 -1.35 Q11.55 0.65 11.75 2.55 11.8 2.9 11.25 3.15 9.85 -0.1 7.85 -0.45 L0.25 -1.7 Q-1.4 -1.7 -0.9 -2.45 L-0.1 -3.2 3.65 -2.9 Q7.65 -2.4 9.0 -1.35" fill="#b80077" fill-rule="evenodd" stroke="none"/>
      <path d="M-13.85 12.9 L-10.25 7.65 Q-9.7 7.15 -6.9 6.45 -3.3 5.5 0.45 5.5 6.25 5.5 10.25 7.45 L13.65 12.65" fill="none" stroke="#630040" stroke-linecap="round" stroke-linejoin="round" stroke-width="1.0"/>
      <path d="M10.3 0.9 Q11.35 2.35 11.25 2.9 11.0 3.9 7.15 2.15 L1.85 0.55 Q0.85 0.25 0.25 -1.0 L-0.15 -2.2 8.15 -1.1 Q9.2 -0.65 10.3 0.9" fill="#ffffff" fill-rule="evenodd" stroke="none"/>
    </g>
  </defs>
</svg>
